X:12
T:GB/7a/12 God Rest You Merry Version 2 of 2
C:Mrs Cranstone, August, 1911
S:Lewis Jones <lewiswjones:yahoo.co.uk> tradtunes 2011-3-11
Q:1/4=120
M:C
L:1/8
K:Edor
E2 |E2 B2 B2 A2 |G2 F2 E2 D2 |E2 F2 G2 A2 |B6 :|Bc |
d3 F F2 G2 |A2 A2 G2 A2 |d2 d2 F2 G2 |A4 G2 A2 |B2 d2 cB A2 |B2 A2 G2 F2 |
E2 F2 G2 E2 |A4 G2 A2 |B2 d2 cB A2 |B2 A2 G2 F2 |E6 |]
